X:1
T:Van Nuys, LMD
T:Van Nuys, LMD
T:John R. Bryant, 1895
T:Public Domain Courtesy of the Cyber Hymnal™
C:John R. Bryant, 1895
Z:Public Domain
Z:Courtesy of the Cyber Hymnal™
%%score ( 1 2 ) ( 3 4 )
L:1/8
Q:1/4=102
M:4/4
K:D
V:1 treble 
V:2 treble 
V:3 bass 
V:4 bass 
V:1
 [FA]2 | [FA]3 [EG] [DF]3 [A,E] | (DC) (DE) [DF]3 [DF] | [DG]3 [DA] [DB][DB][DA][DF] | %4
 [CE]6 [GA]2 | [FA]3 [EG] [DF]3 [A,E] | (DC) (DE) [DF]3 [DF] | [DG]3 [DB] [DA][DA][DF][CE] | %8
 D4- DAAA | (z [Fd])AA A x3 | z [GB]2 x8 | [FA]3 [FA] [GB][FA][DF]D | [CE]4- [CE]AAA | %13
 (z [Fd])AA A x3 | z [GB]2 x8 | [FA]3 [FA] [GB][FA][DF][CE] | D6 |] %17
V:2
 x2 | x8 | A,2 A,2 x4 | x8 | x8 | x8 | A,2 A,2 x4 | x8 | D4- D x3 | d4- F F G x | (B6 GGG G2) | %11
 x7 D | x8 | d4 F ^E G x | (B6 GGG G2) | x8 | (DA,B,B, A,2) |] %17
V:3
 [D,D]2 | [D,D]3 [D,A,] [D,A,]3 [D,G,] | ([D,F,][G,A,]) A,2 [D,A,]3 [=C,A,] | %3
 [B,,G,]3 [A,,F,] [G,,G,][G,,G,][D,F,][D,A,] | [A,,A,]6 [A,,C]2 | [D,D]3 [D,A,] [D,A,]3 [D,G,] | %6
 ([D,F,][G,A,]) A,2 [D,A,]3 [=C,A,] | [B,,G,]3 [G,,G,] [A,,F,][A,,F,][A,,A,][A,,G,] | %8
 [D,F,]4- [D,F,] z3 | z ([D,A,][D,^G,][D,B,] [D,A,]) z3 | z ([E,D][E,D][E,D] [E,D]2) [G,D]2 x3 | %11
 [D,D]3 [D,D] [D,D][D,D][D,A,][D,F,] | [A,,A,]4- [A,,A,] z3 | z ([D,A,][D,^G,][D,B,] [D,A,]) z3 | %14
 z ([G,D][G,D][G,D] [G,D]2) [G,D]2 x3 | [D,D]3 [D,D] [D,D][D,A,][A,,A,][A,,G,] | (F,F,G,G, F,2) |] %17
V:4
 x2 | x8 | x2 (F,=C,) x4 | x8 | x8 | x8 | x2 (F,E,) x4 | x8 | x8 | x8 | x11 | x8 | x8 | x8 | x11 | %15
 x8 | D,6 |] %17

